X: 9128
T: DAF Truck
R: polka
M: 2/4
K: Dmajor
|:fe|dA FA|BA A>F|DE FA|B2 Bc|
dA FA|BA A2|fa (3gfe|de:|
|:fg|a2 fe|dA A2|ag/a/ ba|g2fg|
a2 fe|dA A2|fa (3gfe|1 de:|2 d2||

